src/standard/graph-steady-up.svg

<svg xmlns="http://www.w3.org/2000/svg" viewBox="0 0 36 36">
  <path d="M32.61 19.78a.62.62 0 0 0-.74-.49l-28 5.86A.62.62 0 0 0 4 26.38c.06 0 28-5.86 28.13-5.87a.62.62 0 0 0 .48-.73ZM5 23a.63.63 0 0 0 .63-.62V5.62h24.7v11.2a.62.62 0 0 0 .62.62.63.63 0 0 0 .63-.62V5a.63.63 0 0 0-.58-.62H5a.62.62 0 0 0-.67.62v17.41A.62.62 0 0 0 5 23Z"/>
  <path d="M17.38 8v10a.62.62 0 0 0 1.24 0V8a.62.62 0 0 0-1.24 0Zm7 0v8a.62.62 0 0 0 1.24 0V8a.62.62 0 0 0-1.24 0Zm-14 0v12a.62.62 0 0 0 1.24 0V8a.62.62 0 0 0-1.24 0ZM31 23.28a.63.63 0 0 0-.62.63v6.47H5.58v-1.74a.63.63 0 0 0-1.25 0V31a.62.62 0 0 0 .62.62H31a.63.63 0 0 0 .63-.62v-7.09a.63.63 0 0 0-.63-.63Z"/>
</svg>

<svg id="adf2bbe2-a38f-42b8-8be7-2ed7785a56ff" data-name="Icon" xmlns="http://www.w3.org/2000/svg" viewBox="0 0 36 36">
  <title>Line graph steady up icon - Black</title>
<desc>increase, grow, finance, chart, plot, gain, steady, diagrams and graphs</desc>
<metadata><?xpacket begin="﻿" id="W5M0MpCehiHzreSzNTczkc9d"?>
<x:xmpmeta xmlns:x="adobe:ns:meta/" x:xmptk="Adobe XMP Core 8.0-c001 1.000000, 0000/00/00-00:00:00        ">
   <rdf:RDF xmlns:rdf="http://www.w3.org/1999/02/22-rdf-syntax-ns#">
      <rdf:Description rdf:about=""
            xmlns:xmp="http://ns.adobe.com/xap/1.0/"
            xmlns:dc="http://purl.org/dc/elements/1.1/"
            xmlns:cq="http://www.day.com/jcr/cq/1.0"
            xmlns:tiff="http://ns.adobe.com/tiff/1.0/">
         <xmp:rhcc-effective-on>2023-12-08T17:34:57.628Z</xmp:rhcc-effective-on>
         <xmp:rhcc-metadata-complete-moderator>pending</xmp:rhcc-metadata-complete-moderator>
         <xmp:rhcc-translation-id>TRAa69340ea-1178-44e3-b43c-f651de839089</xmp:rhcc-translation-id>
         <xmp:brand-content-type>Icon</xmp:brand-content-type>
         <xmp:CreateDate>2023-12-08T17:34:57.628Z</xmp:CreateDate>
         <xmp:rhcc-effective-on-set-on-upload>true</xmp:rhcc-effective-on-set-on-upload>
         <xmp:rhcc-metadata-complete-uploader>pending</xmp:rhcc-metadata-complete-uploader>
         <xmp:rhcc-file-last-modified>2023-12-08T17:35:16.892Z</xmp:rhcc-file-last-modified>
         <xmp:rhcc-audience>rhcc-audience:internal</xmp:rhcc-audience>
         <xmp:rhcc-rights-restricted>no</xmp:rhcc-rights-restricted>
         <xmp:brand-content-subtype>Icon</xmp:brand-content-subtype>
         <xmp:rhcc-derivative-id>DERa69340ea-1178-44e3-b43c-f651de839089</xmp:rhcc-derivative-id>
         <xmp:brand-logo-color>Black</xmp:brand-logo-color>
         <xmp:rhcc-notify-portal-subscribers-on-change>yes</xmp:rhcc-notify-portal-subscribers-on-change>
         <dc:format>image/svg+xml</dc:format>
         <dc:modified>2024-02-09T20:34:42.500Z</dc:modified>
         <dc:title>
            <rdf:Alt>
               <rdf:li xml:lang="x-default">Line graph steady up icon - Black</rdf:li>
            </rdf:Alt>
         </dc:title>
         <dc:description>
            <rdf:Alt>
               <rdf:li xml:lang="x-default">increase, grow, finance, chart, plot, gain, steady, diagrams and graphs</rdf:li>
            </rdf:Alt>
         </dc:description>
         <cq:lastReplicationAction_scene7>Activate</cq:lastReplicationAction_scene7>
         <cq:lastReplicationAction_publish>Activate</cq:lastReplicationAction_publish>
         <cq:lastReplicated_publish>2024-02-09T22:22:12.079Z</cq:lastReplicated_publish>
         <cq:lastReplicatedBy>workflow-process-service</cq:lastReplicatedBy>
         <cq:lastReplicationAction>Activate</cq:lastReplicationAction>
         <cq:lastReplicatedBy_publish>workflow-process-service</cq:lastReplicatedBy_publish>
         <cq:isDelivered>true</cq:isDelivered>
         <cq:lastReplicated>2024-02-09T22:22:12.079Z</cq:lastReplicated>
         <cq:lastReplicatedBy_scene7>workflow-process-service</cq:lastReplicatedBy_scene7>
         <cq:lastReplicated_scene7>2024-02-09T22:22:12.079Z</cq:lastReplicated_scene7>
         <tiff:ImageLength>36</tiff:ImageLength>
         <tiff:ImageWidth>36</tiff:ImageWidth>
      </rdf:Description>
   </rdf:RDF>
</x:xmpmeta>
                                                                                                    
                                                                                                    
                                                                                                    
                                                                                                    
                                                                                                    
                                                                                                    
                                                                                                    
                                                                                                    
                                                                                                    
                                                                                                    
                                 
<?xpacket end="w"?></metadata>
<g>
    <path d="M32.61,19.78a.62.62,0,0,0-.74-.49l-28,5.86A.62.62,0,0,0,4,26.38c.06,0,28-5.86,28.13-5.87A.62.62,0,0,0,32.61,19.78Z"/>
    <path d="M5,23a.63.63,0,0,0,.63-.62V5.62H30.33v11.2a.62.62,0,0,0,.62.62.63.63,0,0,0,.63-.62V5A.63.63,0,0,0,31,4.38H5A.62.62,0,0,0,4.33,5V22.41A.62.62,0,0,0,5,23Z"/>
    <path d="M17.38,8V18a.62.62,0,0,0,1.24,0V8A.62.62,0,0,0,17.38,8Z"/>
    <path d="M24.38,8v8a.62.62,0,0,0,1.24,0V8A.62.62,0,0,0,24.38,8Z"/>
    <path d="M10.38,8V20a.62.62,0,0,0,1.24,0V8A.62.62,0,0,0,10.38,8Z"/>
    <path d="M31,23.28a.63.63,0,0,0-.62.63v6.47H5.58V28.64a.63.63,0,0,0-1.25,0V31a.62.62,0,0,0,.62.62H31a.63.63,0,0,0,.63-.62V23.91A.63.63,0,0,0,31,23.28Z"/>
  </g>
</svg>
